svg/u1f919_1f3fb.svg

<svg viewBox="0 0 128 128" xmlns="http://www.w3.org/2000/svg">
  <radialGradient id="d" cx="1739.3" cy="-304.19" gradientTransform="matrix(-.7086 .7056 -.5555 -.5579 1162.6 -1366.7)" gradientUnits="userSpaceOnUse" r="69.434">
    <stop offset=".6" stop-color="#F9DDBD"/>
    <stop offset="1" stop-color="#EDC391"/>
  </radialGradient>
  <path d="m83.08 122.86c-3.94 0-8.7-6.77-13.31-13.31-6.28-8.93-13.85-15.19-14.66-15.84-0.25-0.23-0.78-0.64-2.47-1.94-5.26-4.04-17.57-13.5-22.82-19.84-4.03-4.87-5.38-10.87-6.57-16.16-0.35-1.56-0.68-3.04-1.07-4.44-0.51-1.85-1.63-3.29-2.61-4.55-0.41-0.53-0.8-1.03-1.08-1.48-2.15-3.48-1.69-7.89 1.12-10.72l19.39-19.5c1.4-1.41 3.26-2.18 5.25-2.18 1.57 0 3.08 0.49 4.35 1.42 0.06 0.05 0.13 0.09 0.2 0.12 0.44 0.22 10.81 5.49 21.32 6.78 0.95 0.12 1.95 0.17 2.99 0.17 4.26 0 8.66-0.98 12.39-2.76 4.3-2.05 7.16-5.23 9.68-8.03 2.49-2.77 4.46-4.95 6.84-4.95 4.35 0.06 6.53 3.02 7.6 5.5 2.13 4.94 1.45 11.6-1.53 14.85-2.8 3.05-7.26 5.55-11.57 7.96-5.16 2.88-9.61 5.37-11.11 8.67-0.27 0.59-0.13 1.28 0.34 1.72l4.45 4.15c2.3 2.27 3.59 5.33 3.6 8.6s-1.25 6.34-3.56 8.66l-19.88 19.91c-0.52 0.52-0.58 1.34-0.16 1.93 1.03 1.44 2.19 2.99 3.41 4.61 4.39 5.86 9.37 12.5 12.04 18.74 1.8 4.19 2.18 7.92 1.03 9.97-0.6 1.06-1.62 1.68-3.12 1.9-0.15 0.03-0.31 0.04-0.48 0.04z" fill="url(#d)"/>
  <path d="m102 7h0.05c3.49 0 5.29 2.6 6.19 4.67 1.89 4.37 1.31 10.47-1.26 13.28-2.64 2.88-6.99 5.33-11.2 7.68-5.39 3.01-10.04 5.62-11.74 9.37-0.53 1.17-0.25 2.56 0.69 3.44l4.41 4.12c2.02 2.01 3.15 4.69 3.16 7.54 0.01 2.87-1.1 5.56-3.12 7.59l-19.88 19.92c-1.04 1.04-1.17 2.68-0.31 3.87 1.05 1.46 2.21 3 3.43 4.64 4.34 5.79 9.26 12.35 11.86 18.43 1.57 3.65 2 7.05 1.1 8.64-0.24 0.43-0.69 0.96-2.03 1.15-0.09 0.01-0.18 0.02-0.27 0.02-3.16 0-8.1-7.03-12.08-12.68-6.27-8.9-13.79-15.21-14.89-16.1-0.31-0.28-0.88-0.72-2.56-2.02-5.22-4.01-17.44-13.39-22.57-19.6-3.8-4.6-5.11-10.41-6.26-15.53-0.36-1.58-0.69-3.08-1.09-4.51-0.59-2.14-1.86-3.77-2.88-5.08-0.39-0.5-0.75-0.96-0.99-1.35-1.78-2.89-1.41-6.54 0.91-8.87l19.38-19.48c1.12-1.12 2.6-1.74 4.19-1.74 1.25 0 2.45 0.39 3.47 1.13 0.13 0.09 0.26 0.17 0.4 0.24 0.45 0.23 11.05 5.62 21.82 6.93 1.01 0.12 2.07 0.19 3.17 0.19 4.48 0 9.11-1.03 13.03-2.91 4.57-2.18 7.66-5.7 10.15-8.46s4.1-4.53 5.73-4.53m0.01-2.99c-5.83 0-8.71 9.17-17.17 13.21-3.97 1.9-8.22 2.65-11.74 2.65-1 0-1.94-0.04-2.81-0.14-10.36-1.27-20.81-6.62-20.81-6.62-1.57-1.14-3.41-1.7-5.24-1.7-2.3 0-4.59 0.89-6.31 2.63l-19.38 19.48c-3.34 3.36-3.82 8.54-1.34 12.56 1 1.63 2.89 3.34 3.52 5.65 1.7 6.16 2.46 14.54 7.92 21.16 6.77 8.18 24.88 21.31 25.45 21.95 0 0 7.97 6.41 14.43 15.59 5.36 7.62 9.95 13.95 14.53 13.95 0.23 0 0.47-0.02 0.7-0.05 6.23-0.89 5.93-7.71 3.26-13.94-3.51-8.2-10.9-17.08-15.62-23.64l19.89-19.94c5.36-5.38 5.32-14.09-0.08-19.42l-4.45-4.15c2.46-5.43 16.18-9.51 22.42-16.31 5.77-6.29 3.77-22.93-7.1-22.93-0.02 0.01-0.05 0.01-0.07 0.01z" fill="#E6B77E"/>
  <path d="m76.04 44.33c-1.85 4.08-6.47 8.73-10.46 10.46-5.76 2.5-13.37 2.12-18.62-1.85-1.29-0.97-1.65 0.74-0.37 1.71 5.68 4.3 14.45 9.03 20.69 6.3 17.13-7.49 17.95-19.58 13.5-20.17-2.13-0.29-3.69 1.24-4.74 3.55z" fill="#E6B77E"/>
  <radialGradient id="c" cx="2986.9" cy="-2556.1" gradientTransform="matrix(-1.2506 -.608 .2988 -.6113 4598.6 308.1)" gradientUnits="userSpaceOnUse" r="16.795">
    <stop offset=".5" stop-color="#F9DDBD"/>
    <stop offset=".9995" stop-color="#EDC391"/>
  </radialGradient>
  <path d="m99.78 62.71c-0.87 0-1.71-0.19-2.48-0.56-0.07-0.03-0.14-0.06-0.21-0.08-0.21-0.07-20.83-6.6-24.56-15.21-0.73-1.7-0.71-3.32 0.09-4.96 1.12-2.32 3.23-3.45 6.42-3.45 9.61 0 24.42 10.05 24.57 10.15 0.06 0.04 0.13 0.08 0.19 0.11 3.2 1.55 4.34 5.83 2.55 9.53-1.31 2.71-3.89 4.47-6.57 4.47z" fill="url(#c)"/>
  <path d="m79.04 39.94c7.58 0 19.69 7.14 23.72 9.89 0.12 0.08 0.25 0.16 0.38 0.22 2.46 1.19 3.29 4.57 1.85 7.53-1.07 2.2-3.12 3.63-5.23 3.63-0.65 0-1.26-0.14-1.83-0.42-0.13-0.06-0.27-0.12-0.41-0.16-7.78-2.43-21.08-8.48-23.63-14.37-0.57-1.31-0.55-2.45 0.06-3.71 0.6-1.22 1.71-2.61 5.09-2.61m0-3c-3.41 0-6.26 1.17-7.77 4.29-6.03 12.45 25.37 22.25 25.37 22.25 1 0.49 2.07 0.72 3.14 0.72 3.15 0 6.31-1.99 7.93-5.32 2.16-4.46 0.71-9.62-3.24-11.53-0.01 0.01-15.25-10.41-25.43-10.41z" fill="#E6B77E"/>
  <radialGradient id="b" cx="2964.5" cy="-2556.5" gradientTransform="matrix(-1.4802 -.8294 .3345 -.5926 5337.6 1015.8)" gradientUnits="userSpaceOnUse" r="15.498">
    <stop offset=".5" stop-color="#F9DDBD"/>
    <stop offset=".9995" stop-color="#EDC391"/>
  </radialGradient>
  <path d="m95.36 80.51c-0.79 0-1.52-0.18-2.16-0.54-0.07-0.04-0.14-0.07-0.22-0.1-0.23-0.08-23.41-8.61-27-18.26-0.68-1.82-0.56-3.52 0.38-5.19 1.21-2.16 3.21-3.21 6.12-3.21 10.54 0 27.64 13.47 27.81 13.6 0.06 0.05 0.13 0.09 0.2 0.13 3.1 1.73 3.42 6.25 1.76 9.21-1.4 2.48-4.36 4.36-6.89 4.36z" fill="url(#b)"/>
  <path d="m72.47 51.7v3c8.3 0 22.22 9.58 26.88 13.28 0.13 0.1 0.26 0.19 0.4 0.27 1.31 0.73 1.74 2.15 1.88 2.92 0.26 1.42-0.01 3-0.7 4.24-1.13 2.02-3.57 3.6-5.57 3.6-0.54 0-1.01-0.11-1.43-0.35-0.14-0.08-0.29-0.15-0.44-0.2-0.06-0.02-5.93-2.17-12.16-5.52-7.69-4.14-12.64-8.35-13.95-11.85-0.52-1.41-0.43-2.66 0.28-3.94 0.64-1.14 1.76-2.45 4.81-2.45v-3m0 0c-3.17 0-5.82 1.12-7.43 3.98-7.26 12.99 27.42 25.59 27.42 25.59 0.9 0.51 1.89 0.73 2.9 0.73 3.2 0 6.6-2.28 8.19-5.13 2.09-3.75 1.44-9.14-2.34-11.25 0 0.01-17.55-13.92-28.74-13.92z" fill="#E6B77E"/>
  <radialGradient id="a" cx="2982.1" cy="-2603.3" gradientTransform="matrix(-1.3295 -.7452 .3342 -.5927 4918.2 762.4)" gradientUnits="userSpaceOnUse" r="15.307">
    <stop offset=".5" stop-color="#F9DDBD"/>
    <stop offset=".9995" stop-color="#EDC391"/>
  </radialGradient>
  <path d="m83.01 91.22c-0.92 0-1.75-0.2-2.47-0.61l-0.12-0.06c-0.2-0.09-19.73-8.93-22.59-17.59-0.52-1.57-0.41-2.99 0.34-4.33 0.98-1.75 2.66-2.61 5.12-2.61 9.15 0 24.21 11.33 24.36 11.44 0.05 0.04 0.11 0.08 0.17 0.11 1.65 0.92 2.85 2.25 3.38 3.75 0.57 1.6 0.36 3.36-0.61 5.09-1.57 2.84-4.69 4.81-7.58 4.81z" fill="url(#a)"/>
  <path d="m63.29 64.53v3c7.16 0 19.36 8.04 23.46 11.14 0.11 0.08 0.23 0.16 0.35 0.23 1.33 0.75 2.29 1.79 2.7 2.94 0.43 1.19 0.26 2.49-0.51 3.86-1.31 2.34-3.95 4.03-6.28 4.03-0.66 0-1.25-0.14-1.74-0.42l-0.24-0.12c-7.38-3.31-19.82-10.76-21.78-16.7-0.39-1.18-0.32-2.15 0.22-3.13 0.48-0.86 1.34-1.84 3.81-1.84l0.01-2.99m0 0c-2.77 0-5.08 0.95-6.43 3.37-6.14 10.99 22.95 24.02 22.95 24.02 0.97 0.54 2.07 0.8 3.2 0.8 3.34 0 7.01-2.19 8.9-5.57 2.53-4.52 0.5-8.73-3.35-10.88 0 0-15.51-11.74-25.27-11.74z" fill="#E6B77E"/>
</svg>

<svg viewBox="0 0 128 128" xmlns="http://www.w3.org/2000/svg">
  <defs>
    <radialGradient id="d" cx="-48.883062" cy="-116.059455" gradientTransform="matrix(-0.7086 0.7056 -0.5555 -0.5579 0 0)" gradientUnits="userSpaceOnUse" r="69.434">
      <stop offset=".6" stop-color="#F9DDBD"/>
      <stop offset="1" stop-color="#EDC391"/>
    </radialGradient>
    <radialGradient id="c" cx="-81.479313" cy="-8.292667" gradientTransform="matrix(-1.2506 -0.608 0.2988 -0.6113 0 0)" gradientUnits="userSpaceOnUse" r="16.795">
      <stop offset=".5" stop-color="#F9DDBD"/>
      <stop offset=".9995" stop-color="#EDC391"/>
    </radialGradient>
    <radialGradient id="b" cx="-69.316363" cy="-24.526846" gradientTransform="matrix(-1.4802 -0.8294 0.3345 -0.5926 0 0)" gradientUnits="userSpaceOnUse" r="15.498">
      <stop offset=".5" stop-color="#F9DDBD"/>
      <stop offset=".9995" stop-color="#EDC391"/>
    </radialGradient>
    <radialGradient id="a" cx="-74.493499" cy="-46.570667" gradientTransform="matrix(-1.3295 -0.7452 0.3342 -0.5927 0 0)" gradientUnits="userSpaceOnUse" r="15.307">
      <stop offset=".5" stop-color="#F9DDBD"/>
      <stop offset=".9995" stop-color="#EDC391"/>
    </radialGradient>
  </defs>
  <path d="M83.08,122.86 C79.14,122.86 74.38,116.09 69.77,109.55 C63.49,100.62 55.92,94.36 55.11,93.71 C54.86,93.48 54.33,93.07 52.64,91.77 C47.38,87.73 35.07,78.27 29.82,71.93 C25.79,67.06 24.44,61.06 23.25,55.77 C22.9,54.21 22.57,52.73 22.18,51.33 C21.67,49.48 20.55,48.04 19.57,46.78 C19.16,46.25 18.77,45.75 18.49,45.3 C16.34,41.82 16.8,37.41 19.61,34.58 L39,15.08 C40.4,13.67 42.26,12.9 44.25,12.9 C45.82,12.9 47.33,13.39 48.6,14.32 C48.66,14.37 48.73,14.41 48.8,14.44 C49.24,14.66 59.61,19.93 70.12,21.22 C71.07,21.34 72.07,21.39 73.11,21.39 C77.37,21.39 81.77,20.41 85.5,18.63 C89.8,16.58 92.66,13.4 95.18,10.6 C97.67,7.83 99.64,5.65 102.02,5.65 C106.37,5.71 108.55,8.67 109.62,11.15 C111.75,16.09 111.07,22.75 108.09,26 C105.29,29.05 100.83,31.55 96.52,33.96 C91.36,36.84 86.91,39.33 85.41,42.63 C85.14,43.22 85.28,43.91 85.75,44.35 L90.2,48.5 C92.5,50.77 93.79,53.83 93.8,57.1 C93.81,60.37 92.55,63.44 90.24,65.76 L70.36,85.67 C69.84,86.19 69.78,87.01 70.2,87.6 C71.23,89.04 72.39,90.59 73.61,92.21 C78,98.07 82.98,104.71 85.65,110.95 C87.45,115.14 87.83,118.87 86.68,120.92 C86.08,121.98 85.06,122.6 83.56,122.82 C83.41,122.85 83.25,122.86 83.08,122.86 Z" fill="url(#d)"/>
  <path d="M102,7 L102.05,7 C105.54,7 107.34,9.6 108.24,11.67 C110.13,16.04 109.55,22.14 106.98,24.95 C104.34,27.83 99.99,30.28 95.78,32.63 C90.39,35.64 85.74,38.25 84.04,42 C83.51,43.17 83.79,44.56 84.73,45.44 L89.14,49.56 C91.16,51.57 92.29,54.25 92.3,57.1 C92.31,59.97 91.2,62.66 89.18,64.69 L69.3,84.61 C68.26,85.65 68.13,87.29 68.99,88.48 C70.04,89.94 71.2,91.48 72.42,93.12 C76.76,98.91 81.68,105.47 84.28,111.55 C85.85,115.2 86.28,118.6 85.38,120.19 C85.14,120.62 84.69,121.15 83.35,121.34 C83.26,121.35 83.17,121.36 83.08,121.36 C79.92,121.36 74.98,114.33 71,108.68 C64.73,99.78 57.21,93.47 56.11,92.58 C55.8,92.3 55.23,91.86 53.55,90.56 C48.33,86.55 36.11,77.17 30.98,70.96 C27.18,66.36 25.87,60.55 24.72,55.43 C24.36,53.85 24.03,52.35 23.63,50.92 C23.04,48.78 21.77,47.15 20.75,45.84 C20.36,45.34 20,44.88 19.76,44.49 C17.98,41.6 18.35,37.95 20.67,35.62 L40.05,16.14 C41.17,15.02 42.65,14.4 44.24,14.4 C45.49,14.4 46.69,14.79 47.71,15.53 C47.84,15.62 47.97,15.7 48.11,15.77 C48.56,16 59.16,21.39 69.93,22.7 C70.94,22.82 72,22.89 73.1,22.89 C77.58,22.89 82.21,21.86 86.13,19.98 C90.7,17.8 93.79,14.28 96.28,11.52 C98.77,8.76 100.38,6.99 102.01,6.99 M102.02,4 C96.19,4 93.31,13.17 84.85,17.21 C80.88,19.11 76.63,19.86 73.11,19.86 C72.11,19.86 71.17,19.82 70.3,19.72 C59.94,18.45 49.49,13.1 49.49,13.1 C47.92,11.96 46.08,11.4 44.25,11.4 C41.95,11.4 39.66,12.29 37.94,14.03 L18.56,33.51 C15.22,36.87 14.74,42.05 17.22,46.07 C18.22,47.7 20.11,49.41 20.74,51.72 C22.44,57.88 23.2,66.26 28.66,72.88 C35.43,81.06 53.54,94.19 54.11,94.83 C54.11,94.83 62.08,101.24 68.54,110.42 C73.9,118.04 78.49,124.37 83.07,124.37 C83.3,124.37 83.54,124.35 83.77,124.32 C90,123.43 89.7,116.61 87.03,110.38 C83.52,102.18 76.13,93.3 71.41,86.74 L91.3,66.8 C96.66,61.42 96.62,52.71 91.22,47.38 L86.77,43.23 C89.23,37.8 102.95,33.72 109.19,26.92 C114.96,20.63 112.96,3.99 102.09,3.99 C102.07,4 102.04,4 102.02,4 Z" fill="#E6B77E"/>
  <path d="M76.04,44.33 C74.19,48.41 69.57,53.06 65.58,54.79 C59.82,57.29 52.21,56.91 46.96,52.94 C45.67,51.97 45.31,53.68 46.59,54.65 C52.27,58.95 61.04,63.68 67.28,60.95 C84.41,53.46 85.23,41.37 80.78,40.78 C78.65,40.49 77.09,42.02 76.04,44.33 Z" fill="#E6B77E"/>
  <path d="M99.78,62.71 C98.91,62.71 98.07,62.52 97.3,62.15 C97.23,62.12 97.16,62.09 97.09,62.07 C96.88,62 76.26,55.47 72.53,46.86 C71.8,45.16 71.82,43.54 72.62,41.9 C73.74,39.58 75.85,38.45 79.04,38.45 C88.65,38.45 103.46,48.5 103.61,48.6 C103.67,48.64 103.74,48.68 103.8,48.71 C107,50.26 108.14,54.54 106.35,58.24 C105.04,60.95 102.46,62.71 99.78,62.71 Z" fill="url(#c)"/>
  <path d="M79.04,39.94 C86.62,39.94 98.73,47.08 102.76,49.83 C102.88,49.91 103.01,49.99 103.14,50.05 C105.6,51.24 106.43,54.62 104.99,57.58 C103.92,59.78 101.87,61.21 99.76,61.21 C99.11,61.21 98.5,61.07 97.93,60.79 C97.8,60.73 97.66,60.67 97.52,60.63 C89.74,58.2 76.44,52.15 73.89,46.26 C73.32,44.95 73.34,43.81 73.95,42.55 C74.55,41.33 75.66,39.94 79.04,39.94 M79.04,36.94 C75.63,36.94 72.78,38.11 71.27,41.23 C65.24,53.68 96.64,63.48 96.64,63.48 C97.64,63.97 98.71,64.2 99.78,64.2 C102.93,64.2 106.09,62.21 107.71,58.88 C109.87,54.42 108.42,49.26 104.47,47.35 C104.46,47.36 89.22,36.94 79.04,36.94 Z" fill="#E6B77E"/>
  <path d="M95.36,80.51 C94.57,80.51 93.84,80.33 93.2,79.97 C93.13,79.93 93.06,79.9 92.98,79.87 C92.75,79.79 69.57,71.26 65.98,61.61 C65.3,59.79 65.42,58.09 66.36,56.42 C67.57,54.26 69.57,53.21 72.48,53.21 C83.02,53.21 100.12,66.68 100.29,66.81 C100.35,66.86 100.42,66.9 100.49,66.94 C103.59,68.67 103.91,73.19 102.25,76.15 C100.85,78.63 97.89,80.51 95.36,80.51 Z" fill="url(#b)"/>
  <path d="M72.47,51.7 L72.47,54.7 C80.77,54.7 94.69,64.28 99.35,67.98 C99.48,68.08 99.61,68.17 99.75,68.25 C101.06,68.98 101.49,70.4 101.63,71.17 C101.89,72.59 101.62,74.17 100.93,75.41 C99.8,77.43 97.36,79.01 95.36,79.01 C94.82,79.01 94.35,78.9 93.93,78.66 C93.79,78.58 93.64,78.51 93.49,78.46 C93.43,78.44 87.56,76.29 81.33,72.94 C73.64,68.8 68.69,64.59 67.38,61.09 C66.86,59.68 66.95,58.43 67.66,57.15 C68.3,56.01 69.42,54.7 72.47,54.7 L72.47,51.7 M72.47,51.7 C69.3,51.7 66.65,52.82 65.04,55.68 C57.78,68.67 92.46,81.27 92.46,81.27 C93.36,81.78 94.35,82 95.36,82 C98.56,82 101.96,79.72 103.55,76.87 C105.64,73.12 104.99,67.73 101.21,65.62 C101.21,65.63 83.66,51.7 72.47,51.7 Z" fill="#E6B77E"/>
  <path d="M83.01,91.22 C82.09,91.22 81.26,91.02 80.54,90.61 L80.42,90.55 C80.22,90.46 60.69,81.62 57.83,72.96 C57.31,71.39 57.42,69.97 58.17,68.63 C59.15,66.88 60.83,66.02 63.29,66.02 C72.44,66.02 87.5,77.35 87.65,77.46 C87.7,77.5 87.76,77.54 87.82,77.57 C89.47,78.49 90.67,79.82 91.2,81.32 C91.77,82.92 91.56,84.68 90.59,86.41 C89.02,89.25 85.9,91.22 83.01,91.22 Z" fill="url(#a)"/>
  <path d="M63.29,64.53 L63.29,67.53 C70.45,67.53 82.65,75.57 86.75,78.67 C86.86,78.75 86.98,78.83 87.1,78.9 C88.43,79.65 89.39,80.69 89.8,81.84 C90.23,83.03 90.06,84.33 89.29,85.7 C87.98,88.04 85.34,89.73 83.01,89.73 C82.35,89.73 81.76,89.59 81.27,89.31 L81.03,89.19 C73.65,85.88 61.21,78.43 59.25,72.49 C58.86,71.31 58.93,70.34 59.47,69.36 C59.95,68.5 60.81,67.52 63.28,67.52 L63.29,64.53 M63.29,64.53 C60.52,64.53 58.21,65.48 56.86,67.9 C50.72,78.89 79.81,91.92 79.81,91.92 C80.78,92.46 81.88,92.72 83.01,92.72 C86.35,92.72 90.02,90.53 91.91,87.15 C94.44,82.63 92.41,78.42 88.56,76.27 C88.56,76.27 73.05,64.53 63.29,64.53 Z" fill="#E6B77E"/>
</svg>
